static/img/logo/youtube.svg

<svg width="20" height="15" viewBox="0 0 20 15" fill="none" xmlns="http://www.w3.org/2000/svg">
<path fill-rule="evenodd" clipRule="evenodd" d="M19.1989 2.86497C19.6 4.33817 19.6 7.41159 19.6 7.41159C19.6 7.41159 19.6 10.485 19.1989 11.9582C19.087 12.361 18.8713 12.7273 18.5733 13.0204C18.2754 13.3136 17.9056 13.5233 17.5011 13.6286C16.004 14.0231 9.99975 14.0231 9.99975 14.0231C9.99975 14.0231 3.99609 14.0231 2.49894 13.6286C2.09442 13.5233 1.72467 13.3136 1.42672 13.0204C1.12876 12.7273 0.913054 12.361 0.801197 11.9582C0.400024 10.485 0.400024 7.41159 0.400024 7.41159C0.400024 7.41159 0.400024 4.33817 0.801197 2.86497C0.913087 2.46229 1.12881 2.09608 1.42677 1.80301C1.72473 1.50994 2.09446 1.30031 2.49894 1.19509C3.99609 0.800049 9.99975 0.800049 9.99975 0.800049C9.99975 0.800049 16.004 0.800049 17.5011 1.19509C17.9056 1.30031 18.2753 1.50994 18.5733 1.80301C18.8712 2.09608 19.087 2.46229 19.1989 2.86497ZM8.07969 10.2454L13.0682 7.41159L8.07969 4.57831V10.2449V10.2454Z" fill="currentColor"/>
</svg>

<svg xmlns="http://www.w3.org/2000/svg" width="20" height="15" fill="none" viewBox="0 0 20 15"><path fill="currentColor" fill-rule="evenodd" d="M19.199 2.865c.401 1.473.401 4.547.401 4.547s0 3.073-.401 4.546a2.38 2.38 0 0 1-1.698 1.67c-1.497.395-7.501.395-7.501.395s-6.004 0-7.501-.394A2.38 2.38 0 0 1 .8 11.959C.4 10.484.4 7.411.4 7.411s0-3.074.401-4.547A2.38 2.38 0 0 1 2.5 1.195C3.996.8 9.999.8 9.999.8s6.005 0 7.502.395a2.39 2.39 0 0 1 1.698 1.67m-11.12 7.38 4.99-2.833-4.99-2.834z"/></svg>
